X:1
T:[ID 3-13a]
T:[ID 3-13a]
T:Bezeichnung standardisiert: Allegro Allegro 8.
T:Urheber unbekannt Erstbeleg: 1767 (Datum in der schriftlichen Quelle) Datum in der hier transkribierten schriftlichen Quelle: 1767
C:Urheber unbekannt
C:Erstbeleg: 1767 (Datum in der schriftlichen Quelle)
C:Datum in der hier transkribierten schriftlichen Quelle: 1767
%%score 1 2
L:1/8
M:2/4
K:D
V:1 treble nm="Primo"
V:2 treble nm="Secondo"
V:1
 dfed | egfe | fagf | Te2 A2 | dfed | egfe | f2 Tc2 | d4 :: fagf | Tg4 | egfe | Tf4 | dfed | egfe | %14
 f2 Tc2 | d4 :| %16
V:2
 !fermata!Fd AF | AedA | dfed | A2 A/B/A/G/ | Fd AF | AedA | G/F/G/F/ AG | F4 :: dfed | Te4 | %10
 AedA | d4 | Fd AF | AedA | G/F/G/F/ AG | F4 :| %16

